X: 14840
T: Gargoyle, The
R: reel
M: 4/4
K: Dmajor
|:dc|B~F3 BFdF|BFFD E3F|GFEF GBAF|GFFE F2 DF|
BdBG A~F3|GBGE F2FE|D~F3 DFBF|GEFA B2:|
|:de|f2df gfed|ecAc e2fe|d~B3 F~B3|cAB/c/d e2de|
fbfd ~e3c|dfdB c2dc|B~F3DFBF|GEFA B2:|

